packages/icons/web/visa_electron_large.svg

<svg width="24" height="24" viewBox="0 0 24 24" fill="none" xmlns="http://www.w3.org/2000/svg">
<path d="M2 16.7004H22V18.5H2V16.7004Z" fill="#F8B600"/>
<path d="M2 6H22V7.79893H2V6ZM10.0055 9.78162L7.93969 14.7284H6.59216L5.57533 10.7803C5.51374 10.5379 5.46019 10.4487 5.27275 10.3462C4.96616 10.1791 4.45942 10.0226 4.01426 9.92543L4.04505 9.78162H6.21394C6.49108 9.78162 6.73943 9.96671 6.80303 10.2856L7.33989 13.1485L8.666 9.78162H10.0055ZM15.2871 13.1132C15.2925 11.8083 13.4884 11.735 13.5005 11.1525C13.5045 10.9754 13.6725 10.7863 14.0414 10.7383C14.2241 10.7144 14.7275 10.6951 15.2985 10.9594L15.5221 9.91012C15.1408 9.767 14.7368 9.69304 14.3292 9.69174C13.0687 9.69174 12.1824 10.3635 12.1751 11.3262C12.167 12.0386 12.8083 12.4354 13.291 12.6731C13.7883 12.9154 13.955 13.0706 13.9523 13.2876C13.949 13.6192 13.5554 13.7663 13.1892 13.7716C12.5486 13.7816 12.1764 13.5979 11.8805 13.4587L11.6489 14.5439C11.9475 14.6804 12.497 14.7996 13.066 14.8056C14.4062 14.8056 15.2825 14.1418 15.2865 13.1132H15.2871ZM18.6155 14.7284H19.7936L18.7641 9.78162H17.6769C17.4379 9.7797 17.2221 9.92374 17.1334 10.1445L15.2202 14.7284H16.559L16.8254 13.9893H18.4608L18.6148 14.7284H18.6155ZM17.1923 12.976L17.863 11.1185L18.2493 12.976H17.1916H17.1923ZM11.8276 9.78162L10.7733 14.7284H9.49808L10.5524 9.78162H11.8276ZM13.6417 15.1099H14.5548V15.261H13.8071V15.6358H14.4986V15.7783H13.8071V16.1971H14.5675V16.3435H13.6417V15.1099ZM14.773 15.1099H14.927V16.3435H14.773V15.1099ZM15.7256 15.4694C15.7859 15.4987 15.8327 15.5373 15.8642 15.5852C15.8959 15.633 15.9169 15.6871 15.9258 15.7437C15.9345 15.7856 15.9391 15.8515 15.9391 15.9421H15.2697C15.2687 16.0203 15.2919 16.097 15.336 16.1618C15.3768 16.217 15.4404 16.245 15.5261 16.245C15.6425 16.25 15.7466 16.1734 15.7758 16.0613H15.9264C15.9204 16.1002 15.907 16.1377 15.8869 16.1718C15.838 16.2698 15.7464 16.34 15.6386 16.3622C15.5975 16.3715 15.5555 16.376 15.5134 16.3755C15.404 16.3775 15.2989 16.3332 15.2242 16.2537C15.1452 16.1718 15.1057 16.0579 15.1057 15.9115C15.1057 15.7663 15.1459 15.6491 15.2249 15.5586C15.3032 15.4693 15.4178 15.4198 15.5368 15.4241C15.6018 15.4241 15.664 15.4387 15.7256 15.4687V15.4694ZM15.7818 15.8222C15.7786 15.7674 15.7638 15.7138 15.7383 15.6651C15.6962 15.5919 15.6259 15.5559 15.5275 15.5559C15.4604 15.5547 15.3961 15.5821 15.3507 15.6312C15.3021 15.6831 15.2749 15.7513 15.2744 15.8222H15.7818ZM16.7304 15.492C16.7953 15.5413 16.8342 15.6258 16.8469 15.7463H16.6976C16.6904 15.6954 16.6688 15.6476 16.6353 15.6085C16.6032 15.5712 16.551 15.5533 16.4794 15.5533C16.3816 15.5533 16.312 15.5999 16.2698 15.6944C16.2408 15.7663 16.2271 15.8434 16.2297 15.9208C16.2297 16.0107 16.2484 16.0866 16.2872 16.1478C16.3254 16.2097 16.3863 16.241 16.4693 16.241C16.5257 16.2437 16.5806 16.2227 16.6206 16.1831C16.6607 16.1388 16.6874 16.0841 16.6976 16.0253H16.8469C16.8301 16.1451 16.7866 16.2317 16.7197 16.2869C16.6448 16.3446 16.5519 16.3741 16.4573 16.3702C16.3471 16.3741 16.2415 16.3262 16.1721 16.241C16.099 16.1497 16.061 16.0354 16.065 15.9188C16.065 15.761 16.1045 15.6378 16.1821 15.5499C16.2562 15.4638 16.3654 15.4153 16.4794 15.4181C16.5825 15.4181 16.6661 15.4427 16.7304 15.4913V15.492ZM17.031 15.1924H17.1863V15.4441H17.3315V15.5672H17.1863V16.1545C17.1863 16.1864 17.197 16.2077 17.2184 16.2177C17.2304 16.2244 17.2505 16.227 17.2786 16.227C17.2965 16.2268 17.3144 16.2259 17.3322 16.2244V16.3442C17.314 16.3493 17.2954 16.3528 17.2766 16.3549C17.2562 16.3572 17.2356 16.3583 17.215 16.3582C17.1434 16.3582 17.0946 16.3402 17.0691 16.3036C17.0422 16.262 17.0289 16.2132 17.031 16.1638V15.5672H16.9071V15.4441H17.031V15.1931V15.1924ZM17.4895 15.4441H17.6354V15.5992C17.6565 15.5568 17.6861 15.5192 17.7225 15.4887C17.7693 15.4434 17.8334 15.4201 17.8985 15.4248L17.9333 15.4281V15.5879C17.9168 15.5845 17.9 15.5829 17.8831 15.5832C17.8061 15.5832 17.7466 15.6079 17.7051 15.6565C17.6642 15.7036 17.642 15.764 17.6428 15.8262V16.3435H17.4888V15.4441H17.4895ZM18.6375 16.1325C18.676 16.0537 18.6955 15.9671 18.6944 15.8795C18.6973 15.8089 18.6833 15.7386 18.6536 15.6744C18.6101 15.5912 18.5358 15.5499 18.43 15.5499C18.3363 15.5499 18.268 15.5852 18.2259 15.6558C18.1812 15.7335 18.159 15.822 18.1616 15.9115C18.1616 16.0067 18.183 16.0866 18.2259 16.1511C18.268 16.2144 18.3356 16.2463 18.4287 16.2463C18.5304 16.2463 18.6001 16.2084 18.6375 16.1325ZM18.7326 15.5333C18.8143 15.6112 18.8544 15.725 18.8544 15.8748C18.8596 16.0031 18.8219 16.1295 18.7473 16.2344C18.6757 16.3296 18.5646 16.3768 18.414 16.3768C18.3002 16.3819 18.1903 16.3357 18.1147 16.251C18.0411 16.1671 18.0043 16.0546 18.0043 15.9134C18.0043 15.7623 18.0431 15.6418 18.1208 15.5526C18.1994 15.4626 18.3149 15.413 18.4347 15.4181C18.5456 15.4156 18.6529 15.4573 18.7326 15.534V15.5333ZM19.0372 15.4441H19.1824V15.5719C19.2193 15.5246 19.2661 15.4859 19.3197 15.4587C19.3701 15.4352 19.4253 15.4234 19.481 15.4241C19.6109 15.4241 19.6979 15.468 19.7434 15.5573C19.7718 15.6232 19.7846 15.6947 19.7809 15.7663V16.3435H19.6249V15.777C19.6268 15.7313 19.6183 15.6858 19.6002 15.6438C19.5734 15.5879 19.5238 15.5599 19.4522 15.5599C19.422 15.559 19.3917 15.5626 19.3625 15.5706C19.3192 15.5839 19.2808 15.6096 19.2521 15.6445C19.2281 15.6709 19.2109 15.7026 19.2019 15.737C19.1931 15.7815 19.1892 15.8268 19.1905 15.8722V16.3435H19.0365V15.4441H19.0372Z" fill="#1A1F71"/>
</svg>

<svg width="24" height="24" fill="none" xmlns="http://www.w3.org/2000/svg">
    <path d="M2 16.7h20v1.8H2v-1.8z" fill="#F8B600"/>
    <path d="M2 6h20v1.799H2V6zm8.005 3.782L7.94 14.728H6.592L5.575 10.78c-.061-.242-.115-.331-.302-.434-.307-.167-.814-.323-1.259-.42l.031-.144h2.169c.277 0 .525.185.589.504l.537 2.863 1.326-3.367h1.34zm5.282 3.331c.005-1.305-1.799-1.378-1.787-1.96.005-.178.172-.367.541-.415a2.392 2.392 0 011.258.221l.223-1.049a3.426 3.426 0 00-1.193-.218c-1.26 0-2.147.671-2.154 1.634-.008.713.633 1.11 1.116 1.347.497.242.664.398.661.615-.003.331-.397.478-.763.484-.64.01-1.013-.174-1.309-.313l-.231 1.085c.299.136.848.256 1.417.262 1.34 0 2.216-.664 2.22-1.693h.001zm3.329 1.615h1.178l-1.03-4.946h-1.087a.58.58 0 00-.544.363l-1.913 4.583h1.339l.266-.739h1.636l.154.74zm-1.424-1.752l.671-1.858.386 1.858h-1.057zm-5.364-3.194l-1.055 4.946H9.498l1.054-4.946h1.276zm1.814 5.328h.913v.151h-.748v.375h.692v.142h-.692v.42h.76v.145h-.925V15.11zm1.131 0h.154v1.233h-.154V15.11zm.953.36a.33.33 0 01.138.115.399.399 0 01.062.159c.008.042.013.107.013.198h-.67a.382.382 0 00.067.22c.04.055.104.083.19.083a.247.247 0 00.25-.184h.15a.311.311 0 01-.04.11.358.358 0 01-.247.191.538.538 0 01-.126.014.387.387 0 01-.289-.122.472.472 0 01-.118-.343c0-.145.04-.262.119-.352a.396.396 0 01.312-.135c.065 0 .127.015.189.045zm.056.352a.387.387 0 00-.044-.157c-.042-.073-.112-.11-.21-.11a.235.235 0 00-.177.076.282.282 0 00-.077.191h.508zm.948-.33c.065.05.104.134.117.254h-.15a.27.27 0 00-.062-.138c-.032-.037-.084-.055-.156-.055-.097 0-.167.047-.21.141a.555.555 0 00-.04.227c0 .09.02.166.058.227.038.062.1.093.182.093a.201.201 0 00.152-.058.315.315 0 00.077-.158h.149a.395.395 0 01-.127.262.403.403 0 01-.263.083.352.352 0 01-.285-.129.489.489 0 01-.107-.322.54.54 0 01.117-.37.38.38 0 01.297-.13c.104 0 .187.024.251.072v.001zm.301-.3h.155v.252h.145v.123h-.145v.587c0 .032.011.054.032.064a.144.144 0 00.06.009.737.737 0 00.054-.003v.12a.527.527 0 01-.117.014c-.072 0-.12-.018-.146-.054a.239.239 0 01-.038-.14v-.597h-.124v-.123h.124v-.252zm.459.252h.145v.155a.344.344 0 01.087-.11.23.23 0 01.176-.064l.035.003v.16a.228.228 0 00-.05-.005.222.222 0 00-.178.073.254.254 0 00-.062.17v.517h-.154v-.899zm1.148.688a.56.56 0 00.056-.253.445.445 0 00-.04-.205c-.044-.083-.118-.124-.224-.124-.094 0-.162.035-.204.106a.484.484 0 00-.064.255.42.42 0 00.064.24c.042.063.11.095.203.095.101 0 .171-.038.209-.113zm.095-.599c.081.078.121.192.121.342a.58.58 0 01-.107.36c-.071.095-.182.142-.333.142a.378.378 0 01-.3-.126.494.494 0 01-.11-.338.53.53 0 01.117-.36.395.395 0 01.314-.135c.11-.002.218.04.298.116zm.304-.089h.145v.128a.409.409 0 01.138-.113.37.37 0 01.161-.035c.13 0 .217.044.262.133a.467.467 0 01.038.21v.576h-.156v-.566a.305.305 0 00-.025-.133c-.027-.056-.076-.084-.148-.084a.23.23 0 00-.2.085.22.22 0 00-.05.092.607.607 0 00-.012.135v.471h-.154v-.899h.001z" fill="#1A1F71"/>
</svg>
